source/img/cause-06.svg

<svg width="64" height="65" viewBox="0 0 64 65" fill="none" xmlns="http://www.w3.org/2000/svg">
<path d="M64 32.9053C64 64.9053 64 64.9053 32 64.9053C0 64.9053 0 64.9053 0 32.9053C0 0.905273 0 0.905273 32 0.905273C64 0.905273 64 0.905273 64 32.9053Z" fill="#F7B519"/>
<path d="M46.6333 45.8468L41.4772 40.8022L41.3564 40.6183C41.1317 40.3944 40.8244 40.2683 40.5038 40.2683C40.1831 40.2683 39.8758 40.3944 39.6511 40.6183C35.2692 44.6412 28.5172 44.8599 23.873 41.1292C19.2288 37.3986 18.1335 30.8764 21.3135 25.888C24.4936 20.8996 30.9621 18.993 36.4293 21.4327C41.8964 23.8724 44.6657 29.9013 42.9005 35.521C42.7734 35.927 42.8773 36.3685 43.1731 36.6792C43.4689 36.9899 43.9116 37.1226 44.3346 37.0274C44.7575 36.9321 45.0963 36.6233 45.2235 36.2173C47.3336 29.5483 44.1466 22.3715 37.7242 19.3296C31.3017 16.2877 23.5713 18.2935 19.5336 24.0495C15.4959 29.8055 16.3628 37.5843 21.5734 42.3538C26.784 47.1233 34.7747 47.452 40.3762 43.1275L44.9415 47.5941C45.413 48.0534 46.1752 48.0534 46.6467 47.5941C47.1178 47.1283 47.1178 46.3783 46.6467 45.9125L46.6333 45.8468Z" fill="#343A41"/>
</svg>

<svg width="64" height="65" fill="none" xmlns="http://www.w3.org/2000/svg"><path d="M64 32.905c0 32 0 32-32 32s-32 0-32-32 0-32 32-32 32 0 32 32z" fill="#F7B519"/><path d="M46.633 45.847l-5.156-5.045-.12-.184a1.208 1.208 0 00-.853-.35c-.32 0-.628.126-.853.35-4.382 4.023-11.134 4.242-15.778.511-4.644-3.73-5.74-10.253-2.56-15.241 3.18-4.988 9.65-6.895 15.116-4.455 5.467 2.44 8.237 8.468 6.471 14.088a1.17 1.17 0 00.273 1.158c.296.31.739.444 1.162.348.422-.095.761-.404.889-.81 2.11-6.669-1.077-13.845-7.5-16.887-6.422-3.042-14.153-1.036-18.19 4.72-4.038 5.755-3.171 13.534 2.04 18.304 5.21 4.77 13.2 5.098 18.802.773l4.566 4.467c.471.46 1.233.46 1.705 0a1.177 1.177 0 000-1.681l-.014-.066z" fill="#343A41"/></svg>
